X: 29
T: Pao kouwai paode xin canle
L: 1/16
M: 2/4
K: Bb
g2 g2 g2 d2 [I:setbarnb 1]| 
d2 d bg4 | 
g2 g c' f'2 d c | 
d8 | 
g2 g bg4 | 
g2 g c' f2 d c | 
d2 A2 G2 D D | 
G8 |]

@@@ Tune index: 8903
